build/images/content/video/img_3.svg

<svg width="52" height="64" viewBox="0 0 52 64" fill="none" xmlns="http://www.w3.org/2000/svg">
<mask id="mask0" mask-type="alpha" maskUnits="userSpaceOnUse" x="0" y="-1" width="52" height="65">
<path fill-rule="evenodd" clip-rule="evenodd" d="M0 -0.000244141H52V63.9995H0V-0.000244141Z" fill="white"/>
</mask>
<g mask="url(#mask0)">
<path fill-rule="evenodd" clip-rule="evenodd" d="M2 8.86276V28.9998C2 36.9658 5.511 44.4828 11.634 49.6268L26 61.6938L40.366 49.6268C46.489 44.4828 50 36.9658 50 28.9998V8.86276C37.922 7.01576 28.098 2.99176 26 2.09176C23.902 2.99176 14.078 7.01576 2 8.86276ZM26 63.9998C25.771 63.9998 25.543 63.9218 25.357 63.7648L10.348 51.1578C3.771 45.6338 0 37.5568 0 28.9998V7.99976C0 7.50176 0.366 7.07976 0.858 7.00876C14.542 5.05476 25.478 0.137756 25.586 0.0897559C25.849 -0.0302441 26.151 -0.0302441 26.414 0.0897559C26.522 0.137756 37.458 5.05476 51.142 7.00876C51.634 7.07976 52 7.50176 52 7.99976V28.9998C52 37.5568 48.229 45.6338 41.652 51.1578L26.643 63.7648C26.457 63.9218 26.229 63.9998 26 63.9998Z" fill="#223D72"/>
</g>
<path fill-rule="evenodd" clip-rule="evenodd" d="M8 21.9994C7.448 21.9994 7 21.5524 7 20.9994V13.8804C7 13.4054 7.334 12.9964 7.799 12.9004C9.751 12.5004 11.751 12.0294 13.744 11.5014C14.276 11.3604 14.825 11.6784 14.967 12.2124C15.108 12.7464 14.79 13.2934 14.256 13.4354C12.498 13.9004 10.733 14.3224 9 14.6924V20.9994C9 21.5524 8.552 21.9994 8 21.9994Z" fill="#223D72"/>
</svg>

<svg width="52" height="64" fill="none" xmlns="http://www.w3.org/2000/svg"><mask id="a" maskUnits="userSpaceOnUse" x="0" y="-1" width="52" height="65"><path fill-rule="evenodd" clip-rule="evenodd" d="M0 0h52v64H0V0z" fill="#fff"/></mask><g mask="url(#a)"><path fill-rule="evenodd" clip-rule="evenodd" d="M2 8.863V29c0 7.966 3.511 15.483 9.634 20.627L26 61.694l14.366-12.067C46.489 44.483 50 36.966 50 29V8.863C37.922 7.016 28.098 2.992 26 2.092c-2.098.9-11.922 4.924-24 6.77zM26 64a.993.993 0 01-.643-.235L10.348 51.158C3.771 45.634 0 37.557 0 29V8c0-.498.366-.92.858-.991C14.542 5.055 25.478.138 25.586.089a.997.997 0 01.828 0c.108.049 11.044 4.966 24.728 6.92a1 1 0 01.858.99v21c0 8.558-3.771 16.635-10.348 22.159L26.643 63.765A.993.993 0 0126 64z" fill="#223D72"/></g><path fill-rule="evenodd" clip-rule="evenodd" d="M8 22a1 1 0 01-1-1v-7.12a1 1 0 01.799-.98c1.952-.4 3.952-.87 5.945-1.399a1.001 1.001 0 01.512 1.934c-1.758.465-3.523.887-5.256 1.257V21a1 1 0 01-1 1z" fill="#223D72"/></svg>
